assets/app/parts/svg/icons/potentiometer.svg

<?xml version="1.0" encoding="utf-8"?>

<!DOCTYPE svg PUBLIC "-//W3C//DTD SVG 1.1 Basic//EN" "http://www.w3.org/Graphics/SVG/1.1/DTD/svg11-basic.dtd">
<svg version="1.1" baseProfile="basic" id="Layer_1"
	 xmlns="http://www.w3.org/2000/svg" xmlns:xlink="http://www.w3.org/1999/xlink" x="0px" y="0px" width="0.59in"
	 height="1.179in" viewBox="0 0 42.539 84.941" xml:space="preserve">
<g id="breadboard">
<rect id="connector0pin" x="5.38" y="76.739" fill="#8C8C8C" width="2.979" height="8.203"/>
<rect id="connector0terminal" x="5.38" y="84.386" fill="#8C8C8C" width="2.979" height="0.556"/>
<rect id="connector1pin" x="19.78" y="76.739" fill="#8C8C8C" width="2.979" height="8.203"/>
<rect id="connector1terminal" x="19.78" y="84.386" fill="#8C8C8C" width="2.979" height="0.556"/>
<rect id="connector2pin" x="34.181" y="76.739" fill="#8C8C8C" width="2.979" height="8.203"/>
<rect id="connector2terminal" x="34.181" y="84.386" fill="#8C8C8C" width="2.979" height="0.556"/>
	<g>
		<polygon fill="#0C0C0C" points="15.449,0 13.354,2.223 28.91,2.223 26.68,0 		"/>
		<rect x="28.752" y="2.223" width="0.192" height="50.002"/>
		<rect x="27.916" y="2.223" width="0.365" height="50.002"/>
		<polygon fill="#101010" points="28.281,52.225 28.752,52.225 28.752,2.223 27.119,0.555 28.281,2.223 		"/>
		<polygon fill="#202020" points="26.329,0.555 27.165,2.223 27.165,52.225 27.916,52.225 27.916,2.223 		"/>
		<rect x="26.636" y="2.223" width="0.528" height="50.002"/>
		<rect x="25.015" y="2.223" width="0.641" height="50.002"/>
		<polygon fill="#303030" points="25.206,0.555 25.655,2.223 25.655,52.225 26.636,52.225 26.636,2.223 		"/>
		<polygon fill="#404040" points="23.823,0.555 23.851,2.223 23.851,52.225 25.015,52.225 25.015,2.223 		"/>
		<rect x="23.102" y="2.223" width="0.749" height="50.002"/>
		<rect x="20.998" y="2.223" width="0.802" height="50.002"/>
		<polygon fill="#515151" points="22.222,0.555 21.8,2.223 21.8,52.225 23.102,52.225 23.102,2.223 		"/>
		<polygon fill="#515151" points="20.518,0.555 19.677,2.223 19.677,52.225 20.998,52.225 20.998,2.223 		"/>
		<rect x="18.915" y="2.223" width="0.762" height="50.002"/>
		<rect x="17.065" y="2.223" width="0.657" height="50.002"/>
		<polygon fill="#404040" points="18.89,0.555 17.723,2.223 17.723,52.225 18.915,52.225 18.915,2.223 		"/>
		<polygon fill="#303030" points="17.468,0.555 16.052,2.223 16.052,52.225 17.065,52.225 17.065,2.223 		"/>
		<rect x="15.499" y="2.223" width="0.553" height="50.002"/>
		<rect x="14.314" y="2.223" width="0.395" height="50.002"/>
		<polygon fill="#202020" points="16.294,0.555 14.709,2.223 14.709,52.225 15.499,52.225 15.499,2.223 		"/>
		<polygon fill="#101010" points="15.446,0.555 13.79,2.223 13.79,52.225 14.314,52.225 14.314,2.223 		"/>
		<rect x="13.567" y="2.223" width="0.223" height="50.002"/>
		<rect x="13.361" y="2.223" fill="#515151" width="0.206" height="50.002"/>
	</g>
	<g>
		<polygon points="31.622,50.945 31.622,61.316 10.898,61.316 10.898,50.947 11.365,50.676 31.156,50.675 		"/>
		<g>
			<line fill="none" stroke="#232323" stroke-width="1.0025" x1="31.872" y1="59.994" x2="10.649" y2="61.399"/>
			<line fill="none" stroke="#232323" stroke-width="1.0025" x1="31.872" y1="58.109" x2="10.649" y2="59.515"/>
			<line fill="none" stroke="#232323" stroke-width="1.0025" x1="31.872" y1="56.23" x2="10.649" y2="57.636"/>
			<line fill="none" stroke="#232323" stroke-width="1.0025" x1="31.872" y1="54.349" x2="10.649" y2="55.752"/>
			<line fill="none" stroke="#232323" stroke-width="1.0025" x1="31.872" y1="52.469" x2="10.649" y2="53.872"/>
			<line fill="none" stroke="#232323" stroke-width="1.0025" x1="31.872" y1="50.588" x2="10.649" y2="51.994"/>
		</g>
		<g>
			<line fill="none" stroke="#4C4C4C" stroke-width="0.2055" x1="31.872" y1="60.527" x2="10.649" y2="61.933"/>
			<line fill="none" stroke="#4C4C4C" stroke-width="0.2055" x1="31.872" y1="58.642" x2="10.649" y2="60.048"/>
			<line fill="none" stroke="#4C4C4C" stroke-width="0.2055" x1="31.872" y1="56.764" x2="10.649" y2="58.17"/>
			<line fill="none" stroke="#4C4C4C" stroke-width="0.2055" x1="31.872" y1="54.883" x2="10.649" y2="56.287"/>
			<line fill="none" stroke="#4C4C4C" stroke-width="0.2055" x1="31.872" y1="53.003" x2="10.649" y2="54.406"/>
			<line fill="none" stroke="#4C4C4C" stroke-width="0.2055" x1="31.872" y1="51.123" x2="10.649" y2="52.528"/>
		</g>
		<polygon points="31.622,50.945 31.622,61.316 10.898,61.316 10.898,50.947 11.365,50.676 31.156,50.675 		"/>
	</g>
	<rect x="10.918" y="61.23" width="20.724" height="8.479"/>
	<g>
		<rect x="0.02" y="65.082" fill="#4C4C4C" width="42.52" height="0.823"/>
		<rect x="5.42" y="64.828" fill="#4C4C4C" width="1.316" height="0.686"/>
		<rect x="20.621" y="64.828" fill="#4C4C4C" width="1.316" height="0.686"/>
		<rect x="35.822" y="64.828" fill="#4C4C4C" width="1.316" height="0.686"/>
	</g>
	<rect y="66.059" fill="#7A7A7A" width="42.521" height="10.68"/>
	<g>
		<polygon fill="#686868" points="41.443,61.927 1.077,61.927 2.447,59.108 40.072,59.107 		"/>
		<polygon fill="#686868" points="41.443,62.86 1.077,62.86 2.447,64.774 40.072,64.775 		"/>
		<g>
			<path fill="#4C4C4C" d="M32.266,63.668c0,0-0.043,1.106-1.552,1.106h-18.91c-1.551,0-1.551-1.111-1.551-1.111v-3.445
				c0,0,0-1.111,1.551-1.111h18.91c1.509,0,1.552,1.107,1.552,1.107V63.668z"/>
			<path fill="#2D2D2D" d="M1.077,63.666c0,0,0,1.11,1.551,1.11h6.075c1.551,0,1.551-1.11,1.551-1.11v-3.446
				c0,0,0-1.111-1.551-1.111H2.628c-1.551,0-1.551,1.111-1.551,1.111V63.666z"/>
			<path fill="#2D2D2D" d="M32.266,63.666c0,0,0,1.11,1.551,1.11h6.075c1.551,0,1.551-1.11,1.551-1.11v-3.446
				c0,0,0-1.111-1.551-1.111h-6.075c-1.551,0-1.551,1.111-1.551,1.111V63.666z"/>
		</g>
	</g>
	<polygon fill="#EAEAEA" fill-opacity="0.2" points="0.02,66.006 0.02,67.33 9.574,67.33 9.574,76.739 17.412,76.739 17.412,66.006 
			"/>
	<line fill="none" stroke="#3A3A3A" stroke-width="0.25" x1="0.02" y1="73.446" x2="42.52" y2="73.446"/>
	<line fill="none" stroke="#3A3A3A" stroke-width="0.25" x1="0.02" y1="76.739" x2="42.52" y2="76.739"/>
</g>
</svg>

<?xml version="1.0" encoding="UTF-8" standalone="no"?>
<svg
   width="32"
   height="32"
   id="svg2524"
   version="1.0">
  <g
     id="layer1">
    <g
       id="breadboard"
       transform="matrix(0.4163293,0,0,0.4163198,7.1541748,-1.0464472e-2)">
	<g
   id="g10">
		<polygon
   points="15.449,0 13.354,2.223 28.91,2.223 26.68,0 15.449,0 "
   id="polygon12"
   style="fill:#0c0c0c" />

		<rect
   x="28.752001"
   y="2.223"
   width="0.192"
   height="50.001999"
   id="rect14" />

		<rect
   x="27.916"
   y="2.223"
   width="0.36500001"
   height="50.001999"
   id="rect16" />

		<polygon
   points="28.281,52.225 28.752,52.225 28.752,2.223 27.119,0.555 28.281,2.223 28.281,52.225 "
   id="polygon18"
   style="fill:#101010" />

		<polygon
   points="26.329,0.555 27.165,2.223 27.165,52.225 27.916,52.225 27.916,2.223 26.329,0.555 "
   id="polygon20"
   style="fill:#202020" />

		<rect
   x="26.636"
   y="2.223"
   width="0.528"
   height="50.001999"
   id="rect22" />

		<rect
   x="25.014999"
   y="2.223"
   width="0.64099997"
   height="50.001999"
   id="rect24" />

		<polygon
   points="25.206,0.555 25.655,2.223 25.655,52.225 26.636,52.225 26.636,2.223 25.206,0.555 "
   id="polygon26"
   style="fill:#303030" />

		<polygon
   points="23.823,0.555 23.851,2.223 23.851,52.225 25.015,52.225 25.015,2.223 23.823,0.555 "
   id="polygon28"
   style="fill:#404040" />

		<rect
   x="23.101999"
   y="2.223"
   width="0.74900001"
   height="50.001999"
   id="rect30" />

		<rect
   x="20.997999"
   y="2.223"
   width="0.80199999"
   height="50.001999"
   id="rect32" />

		<polygon
   points="22.222,0.555 21.8,2.223 21.8,52.225 23.102,52.225 23.102,2.223 22.222,0.555 "
   id="polygon34"
   style="fill:#515151" />

		<polygon
   points="20.518,0.555 19.677,2.223 19.677,52.225 20.998,52.225 20.998,2.223 20.518,0.555 "
   id="polygon36"
   style="fill:#515151" />

		<rect
   x="18.915001"
   y="2.223"
   width="0.76200002"
   height="50.001999"
   id="rect38" />

		<rect
   x="17.065001"
   y="2.223"
   width="0.65700001"
   height="50.001999"
   id="rect40" />

		<polygon
   points="18.89,0.555 17.723,2.223 17.723,52.225 18.915,52.225 18.915,2.223 18.89,0.555 "
   id="polygon42"
   style="fill:#404040" />

		<polygon
   points="17.468,0.555 16.052,2.223 16.052,52.225 17.065,52.225 17.065,2.223 17.468,0.555 "
   id="polygon44"
   style="fill:#303030" />

		<rect
   x="15.499"
   y="2.223"
   width="0.55299997"
   height="50.001999"
   id="rect46" />

		<rect
   x="14.314"
   y="2.223"
   width="0.39500001"
   height="50.001999"
   id="rect48" />

		<polygon
   points="16.294,0.555 14.709,2.223 14.709,52.225 15.499,52.225 15.499,2.223 16.294,0.555 "
   id="polygon50"
   style="fill:#202020" />

		<polygon
   points="15.446,0.555 13.79,2.223 13.79,52.225 14.314,52.225 14.314,2.223 15.446,0.555 "
   id="polygon52"
   style="fill:#101010" />

		<rect
   x="13.567"
   y="2.223"
   width="0.223"
   height="50.001999"
   id="rect54" />

		<rect
   x="13.361"
   y="2.223"
   width="0.206"
   height="50.001999"
   id="rect56"
   style="fill:#515151" />

	</g>

	<g
   id="g58">
		<polygon
   points="31.622,50.945 31.622,61.316 10.898,61.316 10.898,50.947 11.365,50.676 31.156,50.675 31.622,50.945 "
   id="polygon60" />

		<g
   id="g62">
			<line
   x1="31.872"
   y1="59.993999"
   x2="10.649"
   y2="61.398998"
   id="line64"
   style="fill:none;stroke:#232323;stroke-width:1.00250006" />

			<line
   x1="31.872"
   y1="58.109001"
   x2="10.649"
   y2="59.514999"
   id="line66"
   style="fill:none;stroke:#232323;stroke-width:1.00250006" />

			<line
   x1="31.872"
   y1="56.23"
   x2="10.649"
   y2="57.636002"
   id="line68"
   style="fill:none;stroke:#232323;stroke-width:1.00250006" />

			<line
   x1="31.872"
   y1="54.348999"
   x2="10.649"
   y2="55.751999"
   id="line70"
   style="fill:none;stroke:#232323;stroke-width:1.00250006" />

			<line
   x1="31.872"
   y1="52.469002"
   x2="10.649"
   y2="53.872002"
   id="line72"
   style="fill:none;stroke:#232323;stroke-width:1.00250006" />

			<line
   x1="31.872"
   y1="50.588001"
   x2="10.649"
   y2="51.993999"
   id="line74"
   style="fill:none;stroke:#232323;stroke-width:1.00250006" />

		</g>

		<g
   id="g76">
			<line
   x1="31.872"
   y1="60.527"
   x2="10.649"
   y2="61.932999"
   id="line78"
   style="fill:none;stroke:#4c4c4c;stroke-width:0.20550001" />

			<line
   x1="31.872"
   y1="58.641998"
   x2="10.649"
   y2="60.048"
   id="line80"
   style="fill:none;stroke:#4c4c4c;stroke-width:0.20550001" />

			<line
   x1="31.872"
   y1="56.764"
   x2="10.649"
   y2="58.169998"
   id="line82"
   style="fill:none;stroke:#4c4c4c;stroke-width:0.20550001" />

			<line
   x1="31.872"
   y1="54.882999"
   x2="10.649"
   y2="56.286999"
   id="line84"
   style="fill:none;stroke:#4c4c4c;stroke-width:0.20550001" />

			<line
   x1="31.872"
   y1="53.002998"
   x2="10.649"
   y2="54.405998"
   id="line86"
   style="fill:none;stroke:#4c4c4c;stroke-width:0.20550001" />

			<line
   x1="31.872"
   y1="51.123001"
   x2="10.649"
   y2="52.528"
   id="line88"
   style="fill:none;stroke:#4c4c4c;stroke-width:0.20550001" />

		</g>

		<polygon
   points="31.622,50.945 31.622,61.316 10.898,61.316 10.898,50.947 11.365,50.676 31.156,50.675 31.622,50.945 "
   id="polygon90" />

	</g>

	<rect
   x="10.918"
   y="61.23"
   width="20.724001"
   height="8.4790001"
   id="rect92" />

	<g
   id="g94">
		<rect
   x="0.02"
   y="65.082001"
   width="42.52"
   height="0.82300001"
   id="rect96"
   style="fill:#4c4c4c" />

		<rect
   x="5.4200001"
   y="64.828003"
   width="1.316"
   height="0.68599999"
   id="rect98"
   style="fill:#4c4c4c" />

		<rect
   x="20.621"
   y="64.828003"
   width="1.316"
   height="0.68599999"
   id="rect100"
   style="fill:#4c4c4c" />

		<rect
   x="35.821999"
   y="64.828003"
   width="1.316"
   height="0.68599999"
   id="rect102"
   style="fill:#4c4c4c" />

	</g>

	<rect
   y="66.058998"
   width="42.521"
   height="10.68"
   id="rect104"
   x="0"
   style="fill:#7a7a7a" />

	<g
   id="g106">
		<polygon
   points="41.443,61.927 1.077,61.927 2.447,59.108 40.072,59.107 41.443,61.927 "
   id="polygon108"
   style="fill:#686868" />

		<polygon
   points="41.443,62.86 1.077,62.86 2.447,64.774 40.072,64.775 41.443,62.86 "
   id="polygon110"
   style="fill:#686868" />

		<g
   id="g112">
			<path
   d="M 32.266,63.668 C 32.266,63.668 32.223,64.774 30.714,64.774 L 11.804,64.774 C 10.253,64.774 10.253,63.663 10.253,63.663 L 10.253,60.218 C 10.253,60.218 10.253,59.107 11.804,59.107 L 30.714,59.107 C 32.223,59.107 32.266,60.214 32.266,60.214 L 32.266,63.668 z"
   id="path114"
   style="fill:#4c4c4c" />

			<path
   d="M 1.077,63.666 C 1.077,63.666 1.077,64.776 2.628,64.776 L 8.703,64.776 C 10.254,64.776 10.254,63.666 10.254,63.666 L 10.254,60.22 C 10.254,60.22 10.254,59.109 8.703,59.109 L 2.628,59.109 C 1.077,59.109 1.077,60.22 1.077,60.22 L 1.077,63.666 L 1.077,63.666 z"
   id="path116"
   style="fill:#2d2d2d" />

			<path
   d="M 32.266,63.666 C 32.266,63.666 32.266,64.776 33.817,64.776 L 39.892,64.776 C 41.443,64.776 41.443,63.666 41.443,63.666 L 41.443,60.22 C 41.443,60.22 41.443,59.109 39.892,59.109 L 33.817,59.109 C 32.266,59.109 32.266,60.22 32.266,60.22 L 32.266,63.666 z"
   id="path118"
   style="fill:#2d2d2d" />

		</g>

	</g>

	<polygon
   points="0.02,66.006 0.02,67.33 9.574,67.33 9.574,76.739 17.412,76.739 17.412,66.006 0.02,66.006 "
   id="polygon120"
   style="fill:#eaeaea;fill-opacity:0.2" />

	<line
   x1="0.02"
   y1="73.445999"
   x2="42.52"
   y2="73.445999"
   id="line122"
   style="fill:none;stroke:#3a3a3a;stroke-width:0.25" />

	<line
   x1="0.02"
   y1="76.738998"
   x2="42.52"
   y2="76.738998"
   id="line124"
   style="fill:none;stroke:#3a3a3a;stroke-width:0.25" />

</g>
  </g>
</svg>
